gnome/icons/Varda/apps/scalable/utilities-log-viewer.svg

<?xml version="1.0" encoding="UTF-8" standalone="no"?>
<svg
   xmlns:dc="http://purl.org/dc/elements/1.1/"
   xmlns:cc="http://creativecommons.org/ns#"
   xmlns:rdf="http://www.w3.org/1999/02/22-rdf-syntax-ns#"
   xmlns:svg="http://www.w3.org/2000/svg"
   xmlns="http://www.w3.org/2000/svg"
   xmlns:sodipodi="http://sodipodi.sourceforge.net/DTD/sodipodi-0.dtd"
   xmlns:inkscape="http://www.inkscape.org/namespaces/inkscape"
   width="64px"
   height="64px"
   viewBox="0 0 64 64"
   version="1.1"
   id="svg31"
   sodipodi:docname="org.gnome.Logs.svg"
   inkscape:version="1.0.2 (e86c870879, 2021-01-15)">
  <metadata
     id="metadata37">
    <rdf:RDF>
      <cc:Work
         rdf:about="">
        <dc:format>image/svg+xml</dc:format>
        <dc:type
           rdf:resource="http://purl.org/dc/dcmitype/StillImage" />
      </cc:Work>
    </rdf:RDF>
  </metadata>
  <defs
     id="defs35" />
  <sodipodi:namedview
     pagecolor="#ffffff"
     bordercolor="#666666"
     borderopacity="1"
     objecttolerance="10"
     gridtolerance="10"
     guidetolerance="10"
     inkscape:pageopacity="0"
     inkscape:pageshadow="2"
     inkscape:window-width="2560"
     inkscape:window-height="1403"
     id="namedview33"
     showgrid="false"
     inkscape:zoom="15.75"
     inkscape:cx="32"
     inkscape:cy="32"
     inkscape:window-x="0"
     inkscape:window-y="0"
     inkscape:window-maximized="1"
     inkscape:current-layer="surface1" />
  <g
     id="surface1">
    <path
       style="fill:#2e3436;fill-opacity:1;fill-rule:nonzero;stroke:none"
       d="m 42.332031,3.144531 h -31.75 c -1.464843,0 -2.644531,1.179688 -2.644531,2.648438 v 52.914062 c 0,1.46875 1.179688,2.648438 2.644531,2.648438 h 42.335938 c 1.464843,0 2.644531,-1.179688 2.644531,-2.648438 V 16.375 Z m 0,0"
       id="path2" />
    <path
       style="fill:#0c0e11;fill-opacity:1;fill-rule:nonzero;stroke:none"
       d="M 55.5625,16.375 42.332031,3.144531 v 10.585938 c 0,1.464843 1.179688,2.644531 2.648438,2.644531 z m 0,0"
       id="path4" />
    <path
       style="fill:#733447;fill-opacity:1;fill-rule:nonzero;stroke:none"
       d="m 24.472656,17.699219 h 6.617188 c 0.363281,0 0.660156,0.292969 0.660156,0.660156 0,0.367187 -0.296875,0.660156 -0.660156,0.660156 h -6.617188 c -0.363281,0 -0.660156,-0.292969 -0.660156,-0.660156 0,-0.367187 0.296875,-0.660156 0.660156,-0.660156 z m 0,0"
       id="path6" />
    <path
       style="fill:#d0ebee;fill-opacity:1;fill-rule:nonzero;stroke:none"
       d="m 24.421875,32.355469 h 19.949219 c 0.335937,0 0.609375,0.273437 0.609375,0.609375 0,0.335937 -0.273438,0.609375 -0.609375,0.609375 H 24.421875 c -0.335937,0 -0.609375,-0.273438 -0.609375,-0.609375 0,-0.335938 0.273438,-0.609375 0.609375,-0.609375 z m 0,0"
       id="path8" />
    <path
       style="fill:#d0ebee;fill-opacity:1;fill-rule:nonzero;stroke:none"
       d="m 24.472656,42.832031 h 17.199219 c 0.367187,0 0.660156,0.296875 0.660156,0.664063 0,0.363281 -0.292969,0.660156 -0.660156,0.660156 H 24.472656 c -0.363281,0 -0.660156,-0.296875 -0.660156,-0.660156 0,-0.367188 0.296875,-0.664063 0.660156,-0.664063 z m 0,0"
       id="path10" />
    <path
       style="fill:#52677c;fill-opacity:1;fill-rule:nonzero;stroke:none"
       d="m 18.519531,28.28125 c 1.460938,0 2.648438,1.183594 2.648438,2.644531 0,1.460938 -1.1875,2.648438 -2.648438,2.648438 -1.460937,0 -2.644531,-1.1875 -2.644531,-2.648438 0,-1.460937 1.183594,-2.644531 2.644531,-2.644531 z m 0,0"
       id="path12" />
    <path
       style="fill:#52677c;fill-opacity:1;fill-rule:nonzero;stroke:none"
       d="m 18.519531,38.863281 c 1.460938,0 2.648438,1.1875 2.648438,2.648438 0,1.460937 -1.1875,2.644531 -2.648438,2.644531 -1.460937,0 -2.644531,-1.183594 -2.644531,-2.644531 0,-1.460938 1.183594,-2.648438 2.644531,-2.648438 z m 0,0"
       id="path14" />
    <path
       style="fill:#733447;fill-opacity:1;fill-rule:nonzero;stroke:none"
       d="m 18.519531,17.613281 c -0.890625,0 -1.800781,0.289063 -2.449219,0.941407 -0.125,0.121093 -0.195312,0.289062 -0.195312,0.464843 0,0.882813 0.394531,1.707031 0.855469,2.394531 0.457031,0.6875 0.925781,1.222657 1.496093,1.507813 0.183594,0.08984 0.402344,0.08984 0.589844,0 0.566406,-0.285156 1.035156,-0.820313 1.496094,-1.507813 0.457031,-0.6875 0.855469,-1.511718 0.855469,-2.394531 0,-0.175781 -0.07031,-0.34375 -0.195313,-0.464843 -0.652344,-0.652344 -1.5625,-0.941407 -2.453125,-0.941407 z m 0,0"
       id="path16" />
    <path
       style="fill:#d0ebee;fill-opacity:1;fill-rule:nonzero;stroke:none"
       d="m 24.472656,21.667969 h 13.230469 c 0.367187,0 0.660156,0.292969 0.660156,0.660156 0,0.367187 -0.292969,0.660156 -0.660156,0.660156 H 24.472656 c -0.363281,0 -0.660156,-0.292969 -0.660156,-0.660156 0,-0.367187 0.296875,-0.660156 0.660156,-0.660156 z m 0,0"
       id="path18" />
    <path
       style="fill:#52677c;fill-opacity:1;fill-rule:nonzero;stroke:none"
       d="m 24.472656,28.28125 h 6.617188 c 0.363281,0 0.660156,0.296875 0.660156,0.660156 0,0.367188 -0.296875,0.664063 -0.660156,0.664063 h -6.617188 c -0.363281,0 -0.660156,-0.296875 -0.660156,-0.664063 0,-0.363281 0.296875,-0.660156 0.660156,-0.660156 z m 0,0"
       id="path20" />
    <path
       style="fill:#52677c;fill-opacity:1;fill-rule:nonzero;stroke:none"
       d="m 24.472656,38.863281 h 6.617188 c 0.363281,0 0.660156,0.296875 0.660156,0.664063 0,0.363281 -0.296875,0.660156 -0.660156,0.660156 h -6.617188 c -0.363281,0 -0.660156,-0.296875 -0.660156,-0.660156 0,-0.367188 0.296875,-0.664063 0.660156,-0.664063 z m 0,0"
       id="path22" />
    <path
       style="fill:#d0ebee;fill-opacity:1;fill-rule:nonzero;stroke:none"
       d="m 33.734375,29.605469 h 13.230469 c 0.363281,0 0.660156,-0.296875 0.660156,-0.664063 0,-0.363281 -0.296875,-0.660156 -0.660156,-0.660156 H 33.734375 c -0.367187,0 -0.660156,0.296875 -0.660156,0.660156 0,0.367188 0.292969,0.664063 0.660156,0.664063 z m 0,0"
       id="path24" />
    <path
       style="fill:#d0ebee;fill-opacity:1;fill-rule:nonzero;stroke:none"
       d="m 33.734375,19.019531 h 13.230469 c 0.363281,0 0.660156,-0.292969 0.660156,-0.660156 0,-0.367187 -0.296875,-0.660156 -0.660156,-0.660156 H 33.734375 c -0.367187,0 -0.660156,0.292969 -0.660156,0.660156 0,0.367187 0.292969,0.660156 0.660156,0.660156 z m 0,0"
       id="path26" />
    <path
       style="fill:#d0ebee;fill-opacity:1;fill-rule:nonzero;stroke:none"
       d="m 33.734375,40.1875 h 13.230469 c 0.363281,0 0.660156,-0.296875 0.660156,-0.660156 0,-0.367188 -0.296875,-0.664063 -0.660156,-0.664063 H 33.734375 c -0.367187,0 -0.660156,0.296875 -0.660156,0.664063 0,0.363281 0.292969,0.660156 0.660156,0.660156 z m 0,0"
       id="path28" />
  </g>
</svg>

<?xml version="1.0" encoding="UTF-8"?>
<svg xmlns="http://www.w3.org/2000/svg" xmlns:xlink="http://www.w3.org/1999/xlink" width="64px" height="64px" viewBox="0 0 64 64" version="1.1">
<g id="surface1">
<path style=" stroke:none;fill-rule:nonzero;fill:rgb(38.039216%,38.039216%,38.039216%);fill-opacity:1;" d="M 42.332031 3.144531 L 10.582031 3.144531 C 9.117188 3.144531 7.9375 4.324219 7.9375 5.792969 L 7.9375 58.707031 C 7.9375 60.175781 9.117188 61.355469 10.582031 61.355469 L 52.917969 61.355469 C 54.382812 61.355469 55.5625 60.175781 55.5625 58.707031 L 55.5625 16.375 Z M 42.332031 3.144531 "/>
<path style=" stroke:none;fill-rule:nonzero;fill:rgb(25.882354%,25.882354%,25.882354%);fill-opacity:1;" d="M 55.5625 16.375 L 42.332031 3.144531 L 42.332031 13.730469 C 42.332031 15.195312 43.511719 16.375 44.980469 16.375 Z M 55.5625 16.375 "/>
<path style=" stroke:none;fill-rule:nonzero;fill:rgb(93.725491%,32.549021%,31.37255%);fill-opacity:1;" d="M 24.472656 17.699219 L 31.089844 17.699219 C 31.453125 17.699219 31.75 17.992188 31.75 18.359375 C 31.75 18.726562 31.453125 19.019531 31.089844 19.019531 L 24.472656 19.019531 C 24.109375 19.019531 23.8125 18.726562 23.8125 18.359375 C 23.8125 17.992188 24.109375 17.699219 24.472656 17.699219 Z M 24.472656 17.699219 "/>
<path style=" stroke:none;fill-rule:nonzero;fill:rgb(96.078432%,96.078432%,96.078432%);fill-opacity:1;" d="M 24.421875 32.355469 L 44.371094 32.355469 C 44.707031 32.355469 44.980469 32.628906 44.980469 32.964844 C 44.980469 33.300781 44.707031 33.574219 44.371094 33.574219 L 24.421875 33.574219 C 24.085938 33.574219 23.8125 33.300781 23.8125 32.964844 C 23.8125 32.628906 24.085938 32.355469 24.421875 32.355469 Z M 24.421875 32.355469 "/>
<path style=" stroke:none;fill-rule:nonzero;fill:rgb(96.078432%,96.078432%,96.078432%);fill-opacity:1;" d="M 24.472656 42.832031 L 41.671875 42.832031 C 42.039062 42.832031 42.332031 43.128906 42.332031 43.496094 C 42.332031 43.859375 42.039062 44.15625 41.671875 44.15625 L 24.472656 44.15625 C 24.109375 44.15625 23.8125 43.859375 23.8125 43.496094 C 23.8125 43.128906 24.109375 42.832031 24.472656 42.832031 Z M 24.472656 42.832031 "/>
<path style=" stroke:none;fill-rule:nonzero;fill:rgb(25.882354%,64.705884%,96.078432%);fill-opacity:1;" d="M 18.519531 28.28125 C 19.980469 28.28125 21.167969 29.464844 21.167969 30.925781 C 21.167969 32.386719 19.980469 33.574219 18.519531 33.574219 C 17.058594 33.574219 15.875 32.386719 15.875 30.925781 C 15.875 29.464844 17.058594 28.28125 18.519531 28.28125 Z M 18.519531 28.28125 "/>
<path style=" stroke:none;fill-rule:nonzero;fill:rgb(25.882354%,64.705884%,96.078432%);fill-opacity:1;" d="M 18.519531 38.863281 C 19.980469 38.863281 21.167969 40.050781 21.167969 41.511719 C 21.167969 42.972656 19.980469 44.15625 18.519531 44.15625 C 17.058594 44.15625 15.875 42.972656 15.875 41.511719 C 15.875 40.050781 17.058594 38.863281 18.519531 38.863281 Z M 18.519531 38.863281 "/>
<path style=" stroke:none;fill-rule:nonzero;fill:rgb(93.725491%,32.549021%,31.37255%);fill-opacity:1;" d="M 18.519531 17.613281 C 17.628906 17.613281 16.71875 17.902344 16.070312 18.554688 C 15.945312 18.675781 15.875 18.84375 15.875 19.019531 C 15.875 19.902344 16.269531 20.726562 16.730469 21.414062 C 17.1875 22.101562 17.65625 22.636719 18.226562 22.921875 C 18.410156 23.011719 18.628906 23.011719 18.816406 22.921875 C 19.382812 22.636719 19.851562 22.101562 20.3125 21.414062 C 20.769531 20.726562 21.167969 19.902344 21.167969 19.019531 C 21.167969 18.84375 21.097656 18.675781 20.972656 18.554688 C 20.320312 17.902344 19.410156 17.613281 18.519531 17.613281 Z M 18.519531 17.613281 "/>
<path style=" stroke:none;fill-rule:nonzero;fill:rgb(96.078432%,96.078432%,96.078432%);fill-opacity:1;" d="M 24.472656 21.667969 L 37.703125 21.667969 C 38.070312 21.667969 38.363281 21.960938 38.363281 22.328125 C 38.363281 22.695312 38.070312 22.988281 37.703125 22.988281 L 24.472656 22.988281 C 24.109375 22.988281 23.8125 22.695312 23.8125 22.328125 C 23.8125 21.960938 24.109375 21.667969 24.472656 21.667969 Z M 24.472656 21.667969 "/>
<path style=" stroke:none;fill-rule:nonzero;fill:rgb(25.882354%,64.705884%,96.078432%);fill-opacity:1;" d="M 24.472656 28.28125 L 31.089844 28.28125 C 31.453125 28.28125 31.75 28.578125 31.75 28.941406 C 31.75 29.308594 31.453125 29.605469 31.089844 29.605469 L 24.472656 29.605469 C 24.109375 29.605469 23.8125 29.308594 23.8125 28.941406 C 23.8125 28.578125 24.109375 28.28125 24.472656 28.28125 Z M 24.472656 28.28125 "/>
<path style=" stroke:none;fill-rule:nonzero;fill:rgb(25.882354%,64.705884%,96.078432%);fill-opacity:1;" d="M 24.472656 38.863281 L 31.089844 38.863281 C 31.453125 38.863281 31.75 39.160156 31.75 39.527344 C 31.75 39.890625 31.453125 40.1875 31.089844 40.1875 L 24.472656 40.1875 C 24.109375 40.1875 23.8125 39.890625 23.8125 39.527344 C 23.8125 39.160156 24.109375 38.863281 24.472656 38.863281 Z M 24.472656 38.863281 "/>
<path style=" stroke:none;fill-rule:nonzero;fill:rgb(96.078432%,96.078432%,96.078432%);fill-opacity:1;" d="M 33.734375 29.605469 L 46.964844 29.605469 C 47.328125 29.605469 47.625 29.308594 47.625 28.941406 C 47.625 28.578125 47.328125 28.28125 46.964844 28.28125 L 33.734375 28.28125 C 33.367188 28.28125 33.074219 28.578125 33.074219 28.941406 C 33.074219 29.308594 33.367188 29.605469 33.734375 29.605469 Z M 33.734375 29.605469 "/>
<path style=" stroke:none;fill-rule:nonzero;fill:rgb(96.078432%,96.078432%,96.078432%);fill-opacity:1;" d="M 33.734375 19.019531 L 46.964844 19.019531 C 47.328125 19.019531 47.625 18.726562 47.625 18.359375 C 47.625 17.992188 47.328125 17.699219 46.964844 17.699219 L 33.734375 17.699219 C 33.367188 17.699219 33.074219 17.992188 33.074219 18.359375 C 33.074219 18.726562 33.367188 19.019531 33.734375 19.019531 Z M 33.734375 19.019531 "/>
<path style=" stroke:none;fill-rule:nonzero;fill:rgb(96.078432%,96.078432%,96.078432%);fill-opacity:1;" d="M 33.734375 40.1875 L 46.964844 40.1875 C 47.328125 40.1875 47.625 39.890625 47.625 39.527344 C 47.625 39.160156 47.328125 38.863281 46.964844 38.863281 L 33.734375 38.863281 C 33.367188 38.863281 33.074219 39.160156 33.074219 39.527344 C 33.074219 39.890625 33.367188 40.1875 33.734375 40.1875 Z M 33.734375 40.1875 "/>
</g>
</svg>
